icons/trophy-16.svg

<svg width="16" height="16" viewBox="0 0 16 16" fill="none" xmlns="http://www.w3.org/2000/svg">
<g clip-path="url(#clip0_7343_61917)">
<path fill-rule="evenodd" clip-rule="evenodd" d="M3.21727 6.96245C1.39851 6.70379 0 5.14022 0 3.25V2.75C0 1.7835 0.783502 1 1.75 1H3.1061C3.33368 0.414783 3.90249 0 4.56818 0H11.4318C12.0975 0 12.6663 0.414782 12.8939 1H14.25C15.2165 1 16 1.7835 16 2.75V3.25C16 5.14022 14.6015 6.70379 12.7827 6.96245C12.356 8.35979 11.3337 9.49721 10.0116 10.0789L10.1562 11.5249C10.1613 11.5755 10.1864 11.6443 10.2697 11.7285C10.3563 11.816 10.4873 11.8991 10.6431 11.9557C10.926 12.0586 11.2615 12.2301 11.5323 12.5237C11.8184 12.8339 12 13.2471 12 13.7501V14.5001H13.25C13.6642 14.5001 14 14.8358 14 15.2501C14 15.6643 13.6642 16.0001 13.25 16.0001H2.75C2.33579 16.0001 2 15.6643 2 15.2501C2 14.8358 2.33579 14.5001 2.75 14.5001H4V13.7501C4 13.2471 4.18163 12.8339 4.46769 12.5237C4.73849 12.2301 5.07398 12.0586 5.35693 11.9557C5.51268 11.8991 5.64373 11.816 5.73032 11.7285C5.81355 11.6443 5.83871 11.5755 5.84377 11.5249L5.98838 10.0789C4.66633 9.49721 3.64401 8.35979 3.21727 6.96245ZM3 2.5H1.75C1.61193 2.5 1.5 2.61193 1.5 2.75V3.25C1.5 4.22966 2.12611 5.06309 3 5.37197V2.5ZM7.45666 10.4708L7.33633 11.6742C7.24389 12.5986 6.47878 13.1439 5.86951 13.3654C5.71893 13.4202 5.62281 13.4837 5.57038 13.5406C5.53321 13.5809 5.5 13.6336 5.5 13.7501V14.5001H10.5V13.7501C10.5 13.6336 10.4668 13.5809 10.4296 13.5406C10.3772 13.4837 10.2811 13.4202 10.1305 13.3654C9.52122 13.1439 8.75611 12.5986 8.66367 11.6742L8.54334 10.4708C8.36487 10.4901 8.18359 10.5 8 10.5C7.81641 10.5 7.63513 10.4901 7.45666 10.4708ZM13 5.37197V2.5H14.25C14.3881 2.5 14.5 2.61193 14.5 2.75V3.25C14.5 4.22966 13.8739 5.06309 13 5.37197ZM4.5 1.56818C4.5 1.53053 4.53053 1.5 4.56818 1.5H11.4318C11.4695 1.5 11.5 1.53053 11.5 1.56818V5.5C11.5 7.433 9.933 9 8 9C6.067 9 4.5 7.433 4.5 5.5V1.56818Z" fill="black"/>
</g>
<defs>
<clipPath id="clip0_7343_61917">
<rect width="16" height="16" fill="white"/>
</clipPath>
</defs>
</svg>

<svg xmlns="http://www.w3.org/2000/svg" width="16" height="16" viewBox="0 0 16 16"><path fill-rule="evenodd" d="M3.217 6.962A3.75 3.75 0 010 3.25v-.5C0 1.784.784 1 1.75 1h1.356c.228-.585.796-1 1.462-1h6.864a1.57 1.57 0 011.462 1h1.356c.966 0 1.75.784 1.75 1.75v.5a3.75 3.75 0 01-3.217 3.712 5.014 5.014 0 01-2.771 3.117l.144 1.446c.005.05.03.12.114.204.086.087.217.17.373.227.283.103.618.274.89.568.285.31.467.723.467 1.226v.75h1.25a.75.75 0 110 1.5H2.75a.75.75 0 010-1.5H4v-.75c0-.503.182-.916.468-1.226.27-.294.606-.465.889-.568a1.03 1.03 0 00.373-.227c.084-.085.109-.153.114-.204l.144-1.446a5.014 5.014 0 01-2.77-3.117zM3 2.5H1.75a.25.25 0 00-.25.25v.5c0 .98.626 1.813 1.5 2.122V2.5zm4.457 7.97l-.12 1.204c-.093.925-.858 1.47-1.467 1.691a.764.764 0 00-.3.176c-.037.04-.07.093-.07.21v.75h5v-.75c0-.117-.033-.17-.07-.21a.763.763 0 00-.3-.176c-.609-.221-1.374-.766-1.466-1.69l-.12-1.204a5.052 5.052 0 01-1.087 0zM13 5.373V2.5h1.25a.25.25 0 01.25.25v.5A2.25 2.25 0 0113 5.372zM4.5 1.568c0-.037.03-.068.068-.068h6.864c.037 0 .068.03.068.068V5.5a3.5 3.5 0 11-7 0V1.568z"/></svg>
